X: 31201
T: Paddy Fahey's
R: reel
M: 4/4
K: Gmajor
|:DB,|G,2 B,D GBdB|c2 ag fgdc|BG G/G/G BcdB|cBAG FDCA,|
G,2 B,D GBdB|c2 ag fgdc|BG G/G/G BcdB|1 cAFA G2:|2 cAFA G2||
|:Bc|dgfa gdBG|FGAB c2 Bc|A(a{b}ag) a3g|fdad bdad|
g/g/g fa gdBG|FGAB c2 Bc|d(g{a}g/f/g) defd|1 cAFA G2:|2 cAFA G2||

